X: 8558
T: Cristina Pato's Muiñeira
R: jig
M: 6/8
K: Gmajor
GAB dBd|c2A cAF|DFA cAc|B2 B DBG|
DGB dBd|c2A cAF|DFA cAF|1 ~G3 BdB:|2 ~G3 G2 A||
BAB GAB|cBc EFG|(GA){B}A {G}AGA|BdB G2A|
BAB GAB|cBc EFG|(GA){B}A DEF|1 ~G3 G2 A:|2 ~G3 BdB||

